src/images/svg/symbols/markets-stocks-and-indices/american-stocks/stocks-adidas-salomon.svg

<svg width="32" height="32" viewBox="0 0 32 32" fill="none" xmlns="http://www.w3.org/2000/svg">
<path d="M0 16C0 7.16344 7.16344 0 16 0C24.8366 0 32 7.16344 32 16C32 24.8366 24.8366 32 16 32C7.16344 32 0 24.8366 0 16Z" fill="#F2F3F4"/>
<path fill-rule="evenodd" clip-rule="evenodd" d="M21.1227 6.25L27.5845 13.3629C27.8699 13.724 28.0167 14.1785 27.9975 14.6417C27.9783 15.1049 27.7945 15.5451 27.4803 15.8805C26.3636 17.109 23.1922 20.4986 23.1922 20.4986C23.1922 20.4986 17.1026 16.2597 21.1227 6.25Z" fill="#246CB3"/>
<path fill-rule="evenodd" clip-rule="evenodd" d="M17.5887 4.35475L20.2829 7.35144L18.6588 10.8674C16.7159 15.711 18.4463 17.2836 18.4463 17.2836L22.241 22.6687C22.241 22.6687 18.5526 26.0956 16.9284 27.4531C15.5851 28.6473 14.7199 27.505 14.7199 27.505L14.0141 26.7632C14.0141 26.7632 15.4181 19.583 15.7976 17.736C15.9386 17.2595 15.9682 16.7581 15.8841 16.2689C15.8 15.7797 15.6045 15.3153 15.3119 14.9099L10.2422 9.41353C10.2422 9.41353 14.5074 5.44513 15.4257 4.46601C16.344 3.48689 17.5887 4.35475 17.5887 4.35475ZM16.3521 10.3927C16.4508 11.2605 16.132 11.9726 15.5932 12.0765C15.1075 12.1358 14.5686 11.483 14.4624 10.6671C14.3561 9.85118 14.7356 9.16135 15.2213 9.03525C15.707 8.90915 16.2535 9.52481 16.3521 10.3927Z" fill="#010101"/>
<path fill-rule="evenodd" clip-rule="evenodd" d="M9.14988 9.25L4.47295 13.4575C4.15887 13.8353 3.99091 14.3161 4.00038 14.8102C4.00985 15.3043 4.19611 15.7781 4.52443 16.1432C5.67895 17.6352 11.5325 24.9984 11.5325 24.9984C11.5325 24.9984 16.0844 17.0683 9.14988 9.25Z" fill="#CF4138"/>
</svg>

<svg width="32" height="32" fill="none" xmlns="http://www.w3.org/2000/svg"><path d="M0 16C0 7.163 7.163 0 16 0s16 7.163 16 16-7.163 16-16 16S0 24.837 0 16Z" fill="#F2F3F4"/><path fill-rule="evenodd" clip-rule="evenodd" d="m21.123 6.25 6.461 7.113a1.934 1.934 0 0 1-.104 2.518 722.918 722.918 0 0 1-4.288 4.618s-6.09-4.24-2.07-14.249Z" fill="#246CB3"/><path fill-rule="evenodd" clip-rule="evenodd" d="m17.589 4.355 2.694 2.996-1.624 3.516c-1.943 4.844-.213 6.417-.213 6.417l3.795 5.385s-3.688 3.427-5.313 4.784c-1.343 1.194-2.208.052-2.208.052l-.706-.742s1.404-7.18 1.784-9.027a3.236 3.236 0 0 0-.486-2.826l-5.07-5.496s4.265-3.969 5.184-4.948c.918-.98 2.163-.111 2.163-.111Zm-1.237 6.038c.099.867-.22 1.58-.759 1.683-.486.06-1.024-.593-1.13-1.409-.107-.816.273-1.506.758-1.632.486-.126 1.032.49 1.131 1.358Z" fill="#010101"/><path fill-rule="evenodd" clip-rule="evenodd" d="m9.15 9.25-4.677 4.207a2.055 2.055 0 0 0 .051 2.686c1.155 1.492 7.009 8.855 7.009 8.855s4.551-7.93-2.383-15.748Z" fill="#CF4138"/></svg>
